!!!COM:	Pierre de la Rue
**kern	**kern
*part2	*part1
*staff2	*staff1
*clefGv2	*clefG2
*k[]	*k[]
*M2/1	*M2/1
=1-	=1-
0e	1b
.	1b
=2	=2
0e	1b
.	1cc
=3	=3
0e	2b
.	2.cc
.	4b
.	4a
.	4g
=4	=4
0f	1a
.	1d
=5	=5
1e	2r
.	2g
[1f	2.a
.	4g
=6	=6
2f]	2a
2e	2g
2d	2a
2c	2cc
=7	=7
0d	2b
.	2.a
.	4g
.	2a
=8	=8
0G	1b
.	2r
.	[2b
=9	=9
1r	2b]
.	4a
.	4g
1c	2a
.	2cc
=10	=10
1.d	2b
.	2.a
.	4g
2c	2e
=11	=11
1d	2f
.	2d
1c	2r
.	[2a
=12	=12
1d	4a]
.	4g
.	4f
.	4e
1f	2d
.	[2a
=13	=13
1e	4a]
.	4g
.	2cc
[1d	2b
.	[2a
=14	=14
2d]	4a]
.	4g
2c	2e
1d	1f
=15	=15
0e	0e
==	==
*-	*-
